X:207
T: Rock the Cradle, Joe
R: reel
M: C
K: D
(a|"D"a)bag fdfg|abag f2(a2|a)bag fed2|
"Bm"f3ef2(f2|"D"f)efe d2(f2|"Bm"f)afe d2ef|"G"gfed "A"cABc|"D" d3ed2:|
|:dB|"A"A[cA][cA][cA] A[cA][cA][cA]|"D"Ad2cd2ef|"G"g2gf gaba|"D"f3e fedB|
"A"A[cA][cA][cA] A[cA][cA][cA]|"D"Ad2cd2ef| "G"gfed "A"cABc| "D" d3ed2:|
